playlist-plus.svg

<svg fill="currentColor" viewBox="0 0 24 24"><path d="M3 16h7v-2H3m15 0v-4h-2v4h-4v2h4v4h2v-4h4v-2m-8-8H3v2h11m0 2H3v2h11z"/></svg>

<svg  viewBox="0 0 24 24" fill="currentColor"><path  d="M3 16H10V14H3M18 14V10H16V14H12V16H16V20H18V16H22V14M14 6H3V8H14M14 10H3V12H14V10Z"/></svg>
